X: 1
P: Bog an Lochan (or Athole Cummers)
R: strathspey
C: Skye Colln, arr. T. Traub 5-2-99
M: 4/4
L: 1/8
K: Em
R: strathspey
B|: "Em"E/E/E E2 E>FB>F|"Em"E/E/E E2 "D"F<DA>F|"Em"E/E/E E2 E>F B>A [1 "G"B<dA>d "D"F>DA>F :| [2 "G"B<dA<d "D"Fd|
|: "Em"B<EB>A B<EE>e|"Em"B<EB>A "D"Fd|"Em"B<EB>A "D"d>ef>e| [1 "G"d/^c/B/A/ d>A "D"Fd :| [2 "G"d/^c/B/A/ d>A "D"Ff|
"Em"e/e/e e2 e>fb>f|"Em"e/e/e e2 "D"f>da>f|"Em"e/e/e e2 e>fb>f|"Em"g<eb>e "D"df/g/ a>f|
"Em"g>eb>e g<eb>e|"Em"g<eb>e "D"df/g/ a<f|"Em"g<eb<e "D"d>ef>e|"G"d/^c/B/A/ d>A "D"F<D D||
|: d|"Em"B<EB>A B<EE>e|"Em"B<EB>A "D"Fd|"Em"B<EB>A "D"d>ef>e|"G"d/^c/B/A/ d>A "D"F<D D :|
